X: 46
T: Baiyu
L: 1/16
M: 2/4
K: Bb
f3 f [I:setbarnb 1]| 
f2> g2 f b g2 | 
f4e2 d2 | 
c4f3 b | 
g8- | 
g8- | 
g8- | 
g4b4 | 
a2 f c' b c' a b | 
g4f b g2 | 
f2 e2 e2 d2 | 
c4f =e f2 | 
g8- | 
g8- | 
g4z4 | 
z4f3 b | 
g2> b2 g2 b2 | 
g4g4 | 
g b f2 g3 g | 
c'4-c' f' d'2 | 
c'2 c'2 b2 g b | 
g2 z2 c'3 e' | 
c'2 a c' b c' a b | 
g4f4 | 
e6f2 | 
c2 z2 c b g2 | 
f g e f e d c e | 
c8- | 
c8- | 
c8- | 
c2 z2 f3 f | 
f2> g2 f b g2 | 
f4e2 d2 | 
c4f3 b | 
g8- | 
g8- | 
g4b4 | 
a2 f c' b c' a b | 
g4f b g2 | 
f4e2 d2 | 
c4f =e f f | 
g8- | 
g8- | 
g4z4 | 
z4f3 f | 
g2> b2 g2 b2 | 
g4g4 | 
g b f2 g3 g | 
c'4c' f' d'2 | 
c'2 b c' b2 g b | 
g2 z2 c'3 e' | 
c'2 a c' b2 a b | 
g4f4 | 
e6f2 | 
z4c b g2 | 
f g e f e d c e | 
c8- | 
c8- | 
c8- | 
c2 z2 f3 f | 
f2> g2 f b g2 | 
f4e2 d2 | 
c4f3 b | 
g8- | 
g8- | 
g2z6 | 
[M:3/4]b4a2 f c' b c' a b | 
[M:2/4]g4f2 g2 | 
f4e2 d2 | 
c2> c2 f =e f f | 
g8- | 
g8- | 
g4z4 | 
z4f3 f | 
g2> b2 g3 b | 
g4g4 | 
g b f2 g3 g | 
c'4c' f' d'2 | 
c'2 c'2 b2 g b | 
z4c'3 e' | 
c'2 a c' b2 a b | 
g4f3 f | 
e6f2 | 
z4c b g2 | 
f g f e e d e c | 
c8- | 
c8- | 
c4z4 | 
z4f3 f | 
g2> b2 g3 b | 
g4g4 | 
g b f2 g3 g | 
c'4c' f' d'2 | 
c'2 c'2 b2 g b | 
g4c'4 | 
c'2 a c' b2 a b | 
g4f3 f | 
e6f2 | 
z4c b g2 | 
f g e> f e2 c e | 
c8- | 
c8- | 
c8- | 
c4 |]

@@@ Tune index: 8714
